X: 26461
T: Metsäkukkia
R: waltz
M: 3/4
K: Aminor
|:E2|F4 E2|A4 B2|c6-|c2 A2 B2|c2 A2 B2|c2 d2 c2|B6-|B4 E2|
F4 E2|B4 c2|d6-|d2 B2 c2|d2 B2 c2|d2 e2 f2|e6-|e4 E2|
F4 E2|A4 B2|c6-|c2 A2 B2|c2 B2 c2|d2 c2 d2|e6-|e2 f2 e2|
d2 c2 B2-|B2 e2 d2|c2 B2 A2-|A2 d2 c2|B2 c2 B2|B2 A2 ^G2|A6-|1 A4:|2 A2 e2||
|:c2|e6-|e2 e2 c2|e6-|e2 e2 e2|f6-|f2 f2 d2|f6-|f2 B2 c2|
d4 d2|d2 c2 d2|e6-|e2 d2 c2|B4 f2|e4 ^G2|A6-|1 A2 e2:|2 A4||

